X: 7
T: No_16_Song_of_Y'ak,_the_Medicine_Man_(b).krn
N: Derived from No_16_Song_of_Y'ak,_the_Medicine_Man_(b).krn
%%abc-version 2.0
%%abcx-abcm2ps-target-version 5.9.1 (29 Sep 2008)
%%abc-creator hum2abc beta
%%abcx-conversion-date 2019/03/15 08:26:49
%%humdrum-veritas 4084601508
%%humdrum-veritas-data 3879585601
%%linebreak <none>
%%barnumbers 0
L: 1/8
M: 2/4
%%staves {1 2}
V: 1 clef=bass
V: 2 clef=bass
K: Bb
[V:1] [K:clef=bass][M:2/4]D2D2 [I:setbarnb 2]| 
[V:2] [K:clef=bass][M:2/4]G,,G,, G,,G,, | 
[V:1] (3DCB, D z/ D/ | 
[V:2] G,,G,,z2 | 
[V:1] C3/C/ C z/ C/ | 
[V:2] z4 | 
[V:1] B,2B,2 | 
[V:2] z4 | 
[V:1] B,2C z/ C/ | 
[V:2] z4 | 
[V:1] B,3/B,/G,2 | 
[V:2] z4 | 
[V:1] G,2G,2 | 
[V:2] z4 | 
[V:1] G,2B, z/ B,/ | 
[V:2] z4 | 
[V:1] G,3/G,/ F, z | 
[V:2] z4 | 
[V:1] C2C/B,3/ | 
[V:2] z4 | 
[V:1] B,2B,2 | 
[V:2] z4 | 
[V:1] B,2B, z | 
[V:2] z4 | 
[V:1] G,2B,3/C/ | 
[V:2] z4 | 
[V:1] B,2B,2 | 
[V:2] z4 | 
[V:1] B,2C z/ C/ | 
[V:2] z4 | 
[V:1] B,3/B,/ B, z | 
[V:2] z4 | 
[V:1] G,2G,2 | 
[V:2] z4 | 
[V:1] G,2G, z/ G,/ | 
[V:2] z4 | 
[V:1] G,3/G,/ G, z | 
[V:2] z4 | 
[V:1] C2(3CB,B, | 
[V:2] z4 | 
[V:1] B,2B,2 | 
[V:2] z4 | 
[V:1] (3CB,B, B, z | 
[V:2] z4 | 
[V:1] G,2B,3/C/ | 
[V:2] z4 | 
[V:1] B,2B,2 | 
[V:2] z4 | 
[V:1] B,2C z/ C/ | 
[V:2] z4 | 
[V:1] B,3/B,/ B, z | 
[V:2] z4 | 
[V:1] G,2G,2 | 
[V:2] z4 | 
[V:1] G,2G, z/ G,/ | 
[V:2] z4 | 
[V:1] G,3/G,/ G, z | 
[V:2] z4 | 
[V:1] B,2B, z :|]  
[V:2] z4 :|]  



